!!!COM:	Japart, Jean
!!!CDT:	~1450//-~1507//
!!!OTL:	Fortuna d'un gran tempo
!!!AGN:	Song; Chanson
!!!SCT:	Jap3007
!!!SCA:	Jap3007
!!!voices:	4
**kern	**kern	**kern	**kern
*staff4	*staff3	*staff2	*staff1
*Ivox	*Ivox	*Ivox	*Ivox
*I"Bassus	*I"Tenor	*I"Altus	*I"Discantus
*I'B	*I'T	*I'A	*I'D
*clefF4	*clefGv2	*clefGv2	*clefG2
*k[b-]	*k[b-]	*k[b-]	*k[b-]
*M2/1	*M2/1	*M2/1	*M2/1
*met(C|)	*met(C|)	*met(C|)	*met(C|)
=1-	=1-	=1-	=1-
0r	0r	1r	0r
.	.	1d	.
=2	=2	=2	=2
1r	0r	1.d	0r
1D	.	.	.
.	.	2c	.
=3	=3	=3	=3
1.D	0r	2B-	0r
.	.	4A	.
.	.	4G	.
.	.	2B-	.
2C	.	[2A	.
=4	=4	=4	=4
1BB-	0r	4A]	0r
.	.	4G	.
.	.	1G	.
1AA	.	.	.
.	.	2F#i	.
=5	=5	=5	=5
1.GG	0r	1.G	1r
.	.	.	1dd
2AA	.	4F	.
.	.	4E	.
=6	=6	=6	=6
2BB-	1r	2D	1.dd
2C	.	2E	.
2D	1d	2F	.
4E	.	4G	2cc
4F	.	4A	.
=7	=7	=7	=7
1G	1.d	1B-	2b-
.	.	.	4a
.	.	.	4g
2D	.	2r	2b-
2F	2c	2A	[2a
=8	=8	=8	=8
1G	1B-	2B-	4a]
.	.	.	4g
.	.	2c	1g
1D	1A	1d	.
.	.	.	2f#i
=9	=9	=9	=9
2r	1.G	1e-i	2g
1GG	.	.	1b-
.	.	[1d	.
[2D	2A	.	4a
.	.	.	4g
=10	=10	=10	=10
1D]	2B-	2d]	1f
.	2A	2f	.
2G	2B-	2e	2g
[2F	2c	2f	[2a
=11	=11	=11	=11
4F]	0A	2c	4a]
4E	.	.	4g
4D	.	2.d	4f#i
4C	.	.	4e
1D	.	.	1f#i
.	.	4c	.
.	.	4B-	.
.	.	4A	.
=12	=12	=12	=12
1r	1G	1B-	0g
1G	1r	2r	.
.	.	2B-	.
=13	=13	=13	=13
1F	0r	2c	1.a
.	.	2.d	.
[1D	.	.	.
.	.	4e	.
.	.	[2f	2a
=14	=14	=14	=14
2D]	0r	2f]	1.a
2C	.	4e	.
.	.	4d	.
2D	.	2f	.
4C	.	[2e	2b-
4BB-	.	.	.
=15	=15	=15	=15
1AA	1.A	2e]	2cc
.	.	4d	2b-
.	.	4c	.
[1D	.	2d	2a
.	2A	4c	2g
.	.	4B-	.
=16	=16	=16	=16
2D]	1.A	2A	0a
2E	.	1c	.
1F	.	.	.
.	2B-	2d	.
=17	=17	=17	=17
1C	2c	2e	1g
.	2B-	2f	.
1E	2A	[1g	1r
.	2G	.	.
=18	=18	=18	=18
0D	0A	2g]	1r
.	.	4f#i	.
.	.	4e	.
.	.	1f#i	1a
=19	=19	=19	=19
1GG	1G	1g	1.b-
2r	1r	1d	.
[2G	.	.	2a
=20	=20	=20	=20
4G]	0r	1.d	1g
4F	.	.	.
2G	.	.	.
2B-	.	.	1f
[2A	.	2c	.
=21	=21	=21	=21
4A]	0r	1B-	1b-
4G	.	.	.
1G	.	.	.
.	.	1A	1cc
2F#i	.	.	.
=22	=22	=22	=22
1.G	0r	1.G	2b-
.	.	.	2.dd
.	.	.	4cc
2D	.	2A	4b-
.	.	.	4a
=23	=23	=23	=23
2G	0r	2B-	2g
2D	.	2A	2f
2G	.	2B-	2b-
[2F	.	2c	[2a
=24	=24	=24	=24
2F]	0r	0A	4a]
.	.	.	4g
2E	.	.	1g
1D	.	.	.
.	.	.	2f#i
=25	=25	=25	=25
1GG	1r	1G	1g
1r	1d	2.D	1r
.	.	4E	.
=26	=26	=26	=26
0r	1.d	2F	0r
.	.	2.G	.
.	.	4A	.
.	2c	4B-	.
.	.	4c	.
=27	=27	=27	=27
0r	1B-	2d	0r
.	.	1g	.
.	1A	.	.
.	.	2f#i	.
=28	=28	=28	=28
0r	1.G	2g	0r
.	.	2.d	.
.	.	4c	.
.	2A	4B-	.
.	.	4A	.
=29	=29	=29	=29
0r	2B-	2G	1.dd
.	2A	2F	.
.	2B-	2G	.
.	2c	[2A	4cc
.	.	.	4b-
=30	=30	=30	=30
0r	0A	4A]	1cc
.	.	4G	.
.	.	1G	.
.	.	.	1a
.	.	2F#i	.
=31	=31	=31	=31
1r	1G	1G	1b-
1A	1r	1F	2cc
.	.	.	[2a
=32	=32	=32	=32
1.A	0r	1D	4a]
.	.	.	4g
.	.	.	4f
.	.	.	4e
.	.	1r	2f
2G	.	.	[2e
=33	=33	=33	=33
1F	0r	1d	4e]
.	.	.	4d
.	.	.	1d
1E	.	1e	.
.	.	.	2c#i
=34	=34	=34	=34
1.D	1.A	1.f	0d
2E	2A	4e	.
.	.	4d	.
=35	=35	=35	=35
2F	1.A	1c	1r
2E	.	.	.
2F	.	1d	[1a
2G	2B-	.	.
=36	=36	=36	=36
0E	2c	1e	2a]
.	2B-	.	2g
.	2A	1c	[1g
.	2G	.	.
=37	=37	=37	=37
1D	0A	1d	1g]
1r	.	1c	1f#i
=38	=38	=38	=38
1.E-i	1G	2B-	1g
.	.	1c	.
.	1r	.	1cc
2E-i	.	4B-	.
.	.	4A	.
=39	=39	=39	=39
1.E-i	0r	1G	2b-
.	.	.	1cc
.	.	1r	.
2F	.	.	4b-
.	.	.	4a
=40	=40	=40	=40
2G	0r	1d	1g
2F	.	.	.
2E-i	.	[1d	1r
2D	.	.	.
=41	=41	=41	=41
0E-i	0r	2d]	0r
.	.	4c	.
.	.	4B-	.
.	.	4c	.
.	.	4B-	.
.	.	4A	.
.	.	4G	.
=42	=42	=42	=42
0D	0r	2F	1dd
.	.	1G	.
.	.	.	[1dd
.	.	2F#i	.
=43	=43	=43	=43
1GG	0r	2G	2dd]
.	.	2d	4cc
.	.	.	4b-
2r	.	4e-i	4cc
.	.	4d	4b-
2C	.	4c	4a
.	.	4B-	4g
=44	=44	=44	=44
2D	1r	2A	2f
2E	.	2G	1g
1D	1d	1A	.
.	.	.	2f#i
=45	=45	=45	=45
2r	1.d	1G	1g
2GG	.	.	.
2BB-	.	2F	1r
2C	2c	2E	.
=46	=46	=46	=46
1GG	1B-	2D	1g
.	.	1G	.
1D	1A	.	1a
.	.	2F#i	.
=47	=47	=47	=47
1GG	1.G	2.G	1.b-
.	.	4A	.
1r	.	2B-	.
.	2A	2c	4a
.	.	.	4g
=48	=48	=48	=48
0r	2B-	2d	1f
.	2A	2c	.
.	2B-	2d	2g
.	2c	[2e	4a
.	.	.	4b-
=49	=49	=49	=49
0r	0A	4e]	4cc
.	.	4c	4b-
.	.	2.f	4a
.	.	.	4g
.	.	.	2a
.	.	4e	.
.	.	4d	4b-
.	.	4c	4cc
=50	=50	=50	=50
1r	1G	2B-	2dd
.	.	2c	1cc
1G	1r	1d	.
.	.	.	2bni
=51	=51	=51	=51
2A	0r	1.c	2.cc
2F	.	.	.
.	.	.	4b-
2A	.	.	4a
.	.	.	4g
[2G	.	[2d	[2b-
=52	=52	=52	=52
4G]	0r	2d]	4b-]
4D	.	.	4a
2F	.	2c	1a
1G	.	1B-	.
.	.	.	2g
=53	=53	=53	=53
2D	1.A	1A	2f
2.F	.	.	2.a
.	.	1r	.
4E	.	.	4g
[2D	2A	.	2f
=54	=54	=54	=54
2D]	1.A	0r	1e
2C#i	.	.	.
2.D	.	.	1d
.	2B-	.	.
4Cni	.	.	.
=55	=55	=55	=55
1AA	2c	1.e	1r
.	2B-	.	.
1r	2A	.	2a
.	2G	2e	2b-
=56	=56	=56	=56
2r	0A	1.e	1cc
2AA	.	.	.
2C	.	.	1cc
2D	.	2f	.
=57	=57	=57	=57
2E	1G	2g	2b-
2F	.	2f	2a
2G	1r	2e	2b-
[2B-	.	2d	[2dd
=58	=58	=58	=58
2B-]	0r	0e	2dd]
4A	.	.	4cc#i
4G	.	.	4bni
1A	.	.	1cc#i
=59	=59	=59	=59
1D	0r	1d	1.dd
1r	.	[1d	.
.	.	.	4cc
.	.	.	4b-
=60	=60	=60	=60
1D	0r	2d]	1a
.	.	2c	.
[1D	.	1B-	2f
.	.	.	2g
=61	=61	=61	=61
2D]	0r	1A	1a
2C	.	.	.
1BB-	.	1G	1d
=62	=62	=62	=62
1AA	0r	1F	0r
[1GG	.	2G	.
.	.	[2B-	.
=63	=63	=63	=63
2GG]	1r	2B-]	0r
2AA	.	2A	.
2BB-	1d	2G	.
2AA	.	[2A	.
=64	=64	=64	=64
2BB-	1.d	4A]	0r
.	.	4G	.
2C	.	1G	.
1AA	.	.	.
.	2c	2F#i	.
=65	=65	=65	=65
2GG	1B-	1G	1.dd
2.GG	.	.	.
.	1A	2r	.
4FF#i	.	.	.
2FF#i	.	2A	2cc
=66	=66	=66	=66
2GG	1.G	1B-	1b-
1G	.	.	.
.	.	1c	1a
2F#i	2A	.	.
=67	=67	=67	=67
1G	2B-	2B-	0g
.	2A	2c	.
2r	2B-	2d	.
2C	2c	[2g	.
=68	=68	=68	=68
2D	0A	2g]	1r
4C	.	4f#i	.
4BB-	.	4e	.
2AA	.	1f#i	1a
2D	.	.	.
=69	=69	=69	=69
2GG	1G	1g	2.b-
2.G	.	.	.
.	.	.	4a
.	1r	1e	2b-
4F	.	.	.
[2A	.	.	2cc
=70	=70	=70	=70
4A]	0r	2c	0a
4G	.	.	.
4F	.	2.f	.
4E	.	.	.
1F	.	.	.
.	.	4e	.
.	.	4d	.
.	.	4c	.
=71	=71	=71	=71
1G	0r	2e	1g
.	.	1d	.
1E	.	.	1r
.	.	2c#i	.
=72	=72	=72	=72
1.D	1.A	0d	2.f
.	.	.	4g
.	.	.	4a
.	.	.	4b-
2E	2A	.	[2cc
=73	=73	=73	=73
1.F	1.A	1c	4cc]
.	.	.	4b-
.	.	.	4a
.	.	.	4g
.	.	[1A	2.a
2E	2B-	.	.
.	.	.	4g
=74	=74	=74	=74
2C	2c	2A]	4f
.	.	.	4e
2D	2B-	2B-	1d
1E	2A	1c	.
.	2G	.	[2g
=75	=75	=75	=75
0D	0A	[0dl	2g]
.	.	.	4f#i
.	.	.	4e
.	.	.	1f#i
=76	=76	=76	=76
0GGl	0Gl	0d]	0gl
==	==	==	==
*-	*-	*-	*-
!!!RDF**kern: l=long note in original notation
!!!RDF**kern: i=editorial accidental
!!!ENC:	Chris Gage 09-11-2013
!!!END:	2013/10/23/
!!!EED:	Jesse Rodin
!!!EEV:	2013/12/19/
!!!ONB:	Translated from MusicXML and edited on 2013/12/19/ by Craig Sapp
!!muse2ps: C^@{COM}^i2I150v85,85,85,100Q4c130
